src/images/aeropress.svg

<?xml version="1.0" encoding="UTF-8"?>
<svg width="76px" height="76px" viewBox="0 0 76 76" version="1.1" xmlns="http://www.w3.org/2000/svg" xmlns:xlink="http://www.w3.org/1999/xlink">
    <!-- Generator: Sketch 41.2 (35397) - http://www.bohemiancoding.com/sketch -->
    <title>Group 16</title>
    <desc>Created with Sketch.</desc>
    <defs></defs>
    <g id="Page-1" stroke="none" stroke-width="1" fill="none" fill-rule="evenodd">
        <g id="Landing" transform="translate(-40.000000, -338.000000)">
            <g id="Group-20" transform="translate(40.000000, 338.000000)">
                <g id="Group-4" transform="translate(0.549595, 0.870743)">
                    <g id="Group-16">
                        <circle id="Oval-2" fill="#F0F0F0" cx="37.5039298" cy="37.5039298" r="37.5039298"></circle>
                        <path d="M48.1294528,56.2543228 L48.1294528,21.6673653 C48.1294528,21.1911249 47.7174779,20.7744146 47.2466493,20.7744146 L45.0690672,20.7744146 L45.0690672,19.5838136 L46.3049922,19.5838136 C47.5409171,19.5838136 48.5414278,18.5718028 48.5414278,17.2621418 C48.5414278,16.0120108 47.5409171,15 46.3049922,15 L29.0020427,15 C27.7661178,15 26.7656071,16.0120108 26.7656071,17.3216718 C26.7656071,18.5718028 27.7661178,19.5838136 29.0020427,19.5838136 L30.2379677,19.5838136 L30.2379677,20.7744146 L28.0603856,20.7744146 C27.5895571,20.7744146 27.1775821,21.1911249 27.1775821,21.6673653 L27.1775821,56.2543228 C26.0005107,56.3138529 25,57.3258637 25,58.5759947 C25,59.8261257 26.0005107,60.8381365 27.2364356,60.8381365 L48.0117457,60.8381365 C49.2476707,60.8381365 50.2481813,59.8261257 50.2481813,58.5164646 C50.3070349,57.3258637 49.3653778,56.3138529 48.1294528,56.2543228 L48.1294528,56.2543228 Z M28.9431892,56.2543228 L28.9431892,53.5754707 L46.3638458,53.5754707 L46.3638458,56.2543228 L28.9431892,56.2543228 L28.9431892,56.2543228 Z M32.0035748,49.2297772 L32.0035748,22.560316 L43.3034601,22.560316 L43.3034601,49.2297772 L32.0035748,49.2297772 L32.0035748,49.2297772 Z M46.3638458,51.0156787 L46.3638458,51.7895693 L28.9431892,51.7895693 L28.9431892,51.0156787 L46.3638458,51.0156787 L46.3638458,51.0156787 Z M46.3638458,22.560316 L46.3638458,49.2297772 L45.0690672,49.2297772 L45.0690672,22.560316 L46.3638458,22.560316 L46.3638458,22.560316 Z M28.5312142,17.2621418 C28.5312142,16.9644916 28.7666285,16.7859014 29.0020427,16.7859014 L46.3049922,16.7859014 C46.59926,16.7859014 46.7758207,17.0240216 46.7758207,17.3216718 C46.7758207,17.6193221 46.5404065,17.7979122 46.3049922,17.7979122 L29.0020427,17.7979122 C28.7077749,17.7979122 28.5312142,17.559792 28.5312142,17.2621418 L28.5312142,17.2621418 Z M32.0035748,19.5838136 L43.3034601,19.5838136 L43.3034601,20.7744146 L32.0035748,20.7744146 L32.0035748,19.5838136 L32.0035748,19.5838136 Z M30.2379677,22.560316 L30.2379677,49.2297772 L28.9431892,49.2297772 L28.9431892,22.560316 L30.2379677,22.560316 L30.2379677,22.560316 Z M48.0705993,59.0522351 L27.2364356,59.0522351 C26.9421678,59.0522351 26.7656071,58.8141149 26.7656071,58.5164646 C26.7656071,58.2188144 27.0010214,58.0402243 27.2364356,58.0402243 L48.0117457,58.0402243 C48.3060135,58.0402243 48.4825743,58.2783444 48.4825743,58.5759947 C48.5414278,58.8141149 48.3060135,59.0522351 48.0705993,59.0522351 L48.0705993,59.0522351 Z" id="Shape" fill="#2B2B2B"></path>
                        <ellipse id="Oval" fill="#2B2B2B" cx="37.7505787" cy="44.73" rx="1.75057868" ry="1.73000002"></ellipse>
                        <ellipse id="Oval-Copy" fill="#2B2B2B" cx="37.7505787" cy="38.73" rx="1.75057868" ry="1.73000002"></ellipse>
                    </g>
                </g>
            </g>
        </g>
    </g>
</svg>

<svg width="76" height="76" viewBox="0 0 76 76" xmlns="http://www.w3.org/2000/svg"><title>Group 16</title><g transform="translate(.55 .87)" fill="none" fill-rule="evenodd"><circle fill="#FF5000" cx="37.5" cy="37.5" r="37.5"/><path d="M48.13 56.25V21.67c0-.48-.4-.9-.88-.9h-2.18v-1.2h1.23c1.24 0 2.24-1 2.24-2.3 0-1.26-1-2.27-2.24-2.27H29c-1.23 0-2.23 1-2.23 2.32 0 1.25 1 2.26 2.23 2.26h1.24v1.2h-2.18c-.47 0-.88.4-.88.9v34.57C26 56.3 25 57.33 25 58.58s1 2.26 2.24 2.26H48c1.25 0 2.25-1 2.25-2.32.06-1.2-.88-2.2-2.12-2.27zm-19.2 0v-2.67h17.43v2.67H28.94zM32 49.23V22.56h11.3v26.67H32zm14.36 1.8v.76H28.94V51h17.42zm0-28.47v26.67h-1.3V22.56h1.3zm-17.83-5.3c0-.3.24-.47.47-.47h17.3c.3 0 .48.22.48.52 0 .3-.24.48-.48.48H29c-.3 0-.47-.24-.47-.54zM32 19.58h11.3v1.2H32v-1.2zm-1.76 2.98v26.67h-1.3V22.56h1.3zm17.83 36.5H27.24c-.3 0-.47-.25-.47-.54 0-.3.23-.48.47-.48H48c.3 0 .48.24.48.54.06.23-.17.47-.4.47z" fill="#FFF"/><ellipse fill="#FFF" cx="37.75" cy="44.73" rx="1.75" ry="1.73"/><ellipse fill="#FFF" cx="37.75" cy="38.73" rx="1.75" ry="1.73"/></g></svg>
